!!!SOCIAL_FUNCTION:	songs of social dances
!!!PDT:	1958
!!!OTL: No_24_Circle_Dance_Song_(b).krn
!!!REG: Northern California
!!!LANG: Non-Tone
!!!LING_GROUP: Penutian
**kern
*staff1
=1-
*clefF4
*k[b-e-]
*M2/4
8.G\L
16F\Jk
8D\L
16G\L
16G\JJ
=2
8.G\L
16F\Jk
8B-\
8r
=3
8.G\L
16F\Jk
8D\L
16G\L
16G\JJ
=4
8.G\L
16F\Jk
8G\
8r
=5
8.G\L
16F\Jk
8D\L
16G\L
16G\JJ
=6
8.G\L
16F\Jk
8B-\
8r
=7
*M3/4
8.G\L
16F\Jk
8D\L
16G\L
16G\JJ
8G\
8r
=8
*M2/4
8.G\L
16G\Jk
16B-\LK
8.G\J
=9
8D\L
8G\J
8G\L
16F\Jk
16r
=10
16B-\LK
8.G\J
8G\L
8F\J
=11
8D\L
16G\L
16G\JJ
8G\
8r
=12
8.G\L
16G\Jk
8F\L
16G\Jk
16r
=13
8B-\L
8G\J
8G\L
8F\J
=14
8.B-\L
16G\Jk
8G\L
8F\J
=15
8D\L
16G\L
16G\JJ
8G\
8r
=16!|:
8.G\L
16G\Jk
8G\L
16F\Jk
16r
=17
8B-\L
8G\J
8.G\L
32F\Jkk
32r
=18
8B-\L
8G\J
8.G\L
16F\Jk
=19
8D\L
16G\L
16G\JJ
8G\L
16F\Jk
16r
=20
8B-\L
8G\J
8.G\L
32F\Jkk
32r
=21
8B-\L
8G\J
8.G\L
16F\Jk
=22
8D\L
16G\L
16G\JJ
8G\L
16F\Jk
16r
=23
8G\L
8G\J
8G\L
16F\Jk
16r
==:|!
*-
